X:31
T:Johnny Leary's
R:Slide
S:Con 'Fada' Driscoll, Cork (fiddle)
D:From RTE 'The Pure Drop'
M:6/8
Z:Bernie Stocks
K:D
DED F2A | d2f ecA | G2E F2D | E2F GFE | DED F2A | d2f ede | 
fef gec |1 d3 d2F :|2 d3 d2f || a2f d2c | d2f afd | g2e =c2d | 
e2f gfe | fed gfe | faf g2e | faf gec |1 d3 d2f :|2 d3 d2F ||
<end>
<start>
